X:15
T:King's Land
%%score 1 { 2 | 3 }
L:1/8
Q:1/4=80
M:2/4
I:linebreak $
K:C
V:1 treble nm="Violin"
V:2 treble nm="Piano"
V:3 bass 
V:1
|: G2 G>A | G2 E>F | G2 G>A | G3 z/ E/ |$ G2 G>A | G2 E>F | G>G G>G | E4 :| 
w: I'm on the|King's land, The|King's not at|home! The|King's gone to|Bos- ton, To|buy his wife a|comb!|
V:2
|: [A,CEG]2 [CEG]>A | [A,CEG]2 [A,CE]>F | [A,CEG]2 [A,CEG]>A | [A,CEG]3 z/ E/ |$ [A,CEG]2 [CEG]>A | 
[A,CEG]2 [A,CE]>F | [A,CEG]>G [A,CEG]>G | [A,CE]4 :| 
V:3
|: [C,,G,,C,]4 | [C,,G,,C,]4 | [C,,G,,C,]4 | [C,,G,,C,]4 |$ [C,,G,,C,]4 | [C,,G,,C,]4 | 
[C,,G,,C,]4 | [C,,G,,C,]2 C,,2 :| 



